img/svg/service-parking.svg

<?xml version="1.0" encoding="utf-8"?><!DOCTYPE svg PUBLIC "-//W3C//DTD SVG 1.1//EN" "http://www.w3.org/Graphics/SVG/1.1/DTD/svg11.dtd"><svg version="1.1" baseProfile="full" xmlns="http://www.w3.org/2000/svg" xmlns:xlink="http://www.w3.org/1999/xlink" xmlns:ev="http://www.w3.org/2001/xml-events"   height="12px"   width="12px" ><path fill="rgb( 255, 102, 0 )" d="M10.667,12 C10.667,12 1.33300000000003,12 1.33300000000003,12 C0.60000000000002,12 0,11.4 0,10.667 C0,10.667 0,1.33300000000003 0,1.33300000000003 C0,0.60000000000002 0.60000000000002,0 1.33300000000003,0 C1.33300000000003,0 10.667,0 10.667,0 C11.4,0 12,0.60000000000002 12,1.33300000000003 C12,1.33300000000003 12,10.667 12,10.667 C12,11.4 11.4,12 10.667,12 ZM8.06700000000001,3.267 C7.66699999999997,2.86700000000002 7.19999999999999,2.66699999999997 6.19999999999999,2.66699999999997 C6.19999999999999,2.66699999999997 3.33300000000003,2.66699999999997 3.33300000000003,2.66699999999997 C3.33300000000003,2.66699999999997 3.33300000000003,9.33300000000003 3.33300000000003,9.33300000000003 C3.33300000000003,9.33300000000003 4.53300000000002,9.33300000000003 4.53300000000002,9.33300000000003 C4.53300000000002,9.33300000000003 4.53300000000002,6.93299999999999 4.53300000000002,6.93299999999999 C4.53300000000002,6.93299999999999 4.53300000000002,6.86700000000002 4.53300000000002,6.86700000000002 C4.53300000000002,6.86700000000002 6.19999999999999,6.86700000000002 6.19999999999999,6.86700000000002 C7.19999999999999,6.86700000000002 7.66699999999997,6.66699999999997 8.06700000000001,6.33300000000003 C8.46699999999998,6 8.66699999999997,5.46699999999998 8.66699999999997,4.80000000000001 C8.66699999999997,4.19999999999999 8.53300000000002,3.66699999999997 8.06700000000001,3.267 ZM6.13299999999998,6 C6.13299999999998,6 4.53300000000002,6 4.53300000000002,6 C4.53300000000002,6 4.53300000000002,3.60000000000002 4.53300000000002,3.60000000000002 C4.53300000000002,3.60000000000002 6.06700000000001,3.60000000000002 6.06700000000001,3.60000000000002 C6.53300000000002,3.60000000000002 6.86700000000002,3.733 7.06700000000001,4 C7.267,4.267 7.39999999999998,4.46699999999998 7.39999999999998,4.80000000000001 C7.39999999999998,5.19999999999999 7.267,5.39999999999998 7.06700000000001,5.66699999999997 C6.86700000000002,5.86700000000002 6.60000000000002,6 6.13299999999998,6 Z "/></svg>

<svg baseProfile="full" xmlns="http://www.w3.org/2000/svg" height="12" width="12"><path fill="rgb( 255, 102, 0 )" d="M10.667 12h-9.334c-.733 0-1.333-.6-1.333-1.333v-9.334c0-.733.6-1.333 1.333-1.333h9.334c.733 0 1.333.6 1.333 1.333v9.334c0 .733-.6 1.333-1.333 1.333zm-2.6-8.733c-.4-.4-.867-.6-1.867-.6h-2.867v6.666h1.2v-2.4659999999999997h1.667c1 0 1.467-.2 1.867-.534.4-.333.6-.866.6-1.533 0-.6-.134-1.133-.6-1.533zm-1.934 2.733h-1.6v-2.4h1.534c.466 0 .8.133 1 .4.2.267.333.467.333.8 0 .4-.133.6-.333.867-.2.2-.467.333-.934.333z"/></svg>
